packages/icons/svg/24/BringForward.svg

<svg width="24" height="24" viewBox="0 0 24 24" fill="none" xmlns="http://www.w3.org/2000/svg">
<path d="M16 6L12 2L8.00004 6H11V11C11 11.5523 11.4478 12 12 12C12.5523 12 13 11.5523 13 11V6H16Z" fill="#858585"/>
<path d="M9.00004 8.83534L4.39437 11.653C3.75686 12.043 3.75686 12.969 4.39437 13.3591L11.4782 17.6928C11.7985 17.8888 12.2016 17.8888 12.5219 17.6928L19.6057 13.3591C20.2432 12.969 20.2432 12.043 19.6057 11.653L15 8.83534V10.8277L17.74 12.506L12.5224 15.7021C12.2018 15.8984 11.7982 15.8984 11.4777 15.7021L6.26004 12.506L9.00004 10.8277V8.83534Z" fill="#858585"/>
<path d="M11.4682 19.6908C11.7885 19.8867 12.1915 19.8867 12.5118 19.6908L18.9253 15.7671C19.1983 15.6001 19.5417 15.6002 19.8145 15.7674C20.3568 16.0998 20.3565 16.8877 19.814 17.2196L12.5219 21.6807C12.2016 21.8767 11.7985 21.8767 11.4782 21.6807L4.1789 17.2152C3.63991 16.8854 3.63991 16.1025 4.17891 15.7728C4.44968 15.6071 4.79042 15.6071 5.06122 15.7727L11.4682 19.6908Z" fill="#858585"/>
</svg>

<svg width="24" height="24" fill="none" xmlns="http://www.w3.org/2000/svg" viewBox="0 0 24 24"><path d="M16 6l-4-4-4 4h3v5a1 1 0 002 0V6h3z" fill="currentColor"></path><path d="M9 8.835l-4.606 2.818a1 1 0 000 1.706l7.084 4.334a1 1 0 001.044 0l7.084-4.334a1 1 0 000-1.706L15 8.835v1.993l2.74 1.678-5.218 3.196a1 1 0 01-1.044 0L6.26 12.506 9 10.828V8.835z" fill="currentColor"></path><path d="M11.468 19.69a1 1 0 001.044 0l6.413-3.923a.851.851 0 11.889 1.453l-7.292 4.46a1 1 0 01-1.044 0l-7.3-4.465a.845.845 0 01.883-1.442l6.407 3.918z" fill="currentColor"></path></svg>
